X: 20799
T: Johnny Micky's
R: slide
M: 12/8
K: Dmajor
G2 A2|B2B BdB A2 A AGA|G2G GAB d2d e2d|B2B BdB A2 A AGA|BdB ABA G6:|
B2d g3 agf g3|B2de2f g3|B2B BdB A2 A AGA|BdB ABA G6:|

